svg/development/cursor_3_fill.svg

<svg xmlns="http://www.w3.org/2000/svg" width="24" height="24" viewBox="0 0 24 24"><g fill="none" fill-rule="evenodd"><path d="M24,0 L24,24 L0,24 L0,0 L24,0 Z M12.5935,23.2578 L12.5819,23.2595 L12.5109,23.295 L12.4919,23.2987 L12.4767,23.295 L12.4057,23.2595 C12.3958,23.2564 12.387,23.259 12.3821,23.2649 L12.378,23.2758 L12.3609,23.7031 L12.3659,23.7235 L12.3769,23.7357 L12.4805,23.8097 L12.4953,23.8136 L12.5071,23.8097 L12.6107,23.7357 L12.6233,23.7197 L12.6267,23.7031 L12.6096,23.2758 C12.6076,23.2657 12.601,23.2593 12.5935,23.2578 Z M12.8584,23.1453 L12.8445,23.1473 L12.6598,23.2397 L12.6499,23.2499 L12.6472,23.2611 L12.6651,23.6906 L12.6699,23.7034 L12.6784,23.7105 L12.8793,23.8032 C12.8914,23.8069 12.9022,23.803 12.9078,23.7952 L12.9118,23.7812 L12.8777,23.1665 C12.8753,23.1546 12.8674,23.147 12.8584,23.1453 Z M12.143,23.1473 C12.1332,23.1424 12.1222,23.1453 12.1156,23.1526 L12.1099,23.1665 L12.0758,23.7812 C12.0751,23.7927 12.0828,23.8019 12.0926,23.8046 L12.1083,23.8032 L12.3092,23.7105 L12.3186,23.7024 L12.3225,23.6906 L12.3404,23.2611 L12.3372,23.2485 L12.3278,23.2397 L12.143,23.1473 Z"/><path fill="#09244B" d="M10,3 C10,2.44772 9.55228,2 9,2 C8.44772,2 8,2.44772 8,3 L8,5 C8,5.55228 8.44772,6 9,6 C9.55228,6 10,5.55228 10,5 L10,3 Z M5.46449,4.05022 C5.07397,3.65969 4.4408,3.65969 4.05028,4.05022 C3.65975,4.44074 3.65975,5.07391 4.05028,5.46443 L5.46449,6.87864 C5.85502,7.26917 6.48818,7.26917 6.87871,6.87864 C7.26923,6.48812 7.26923,5.85496 6.87871,5.46443 L5.46449,4.05022 Z M9.79059,8.2095 C8.81339,7.88377 7.88372,8.81344 8.20945,9.79064 L11.742,20.3884 C12.0994,21.4604 13.5827,21.5457 14.0606,20.5217 L16.1164,16.1164 L20.5216,14.0607 C21.5456,13.5828 21.4603,12.0994 20.3883,11.7421 L9.79059,8.2095 Z M13.9498,4.05022 C14.3403,4.44074 14.3403,5.07391 13.9498,5.46443 L12.5355,6.87864 C12.145,7.26917 11.5118,7.26917 11.1213,6.87864 C10.7308,6.48812 10.7308,5.85496 11.1213,5.46443 L12.5355,4.05022 C12.9261,3.65969 13.5592,3.65969 13.9498,4.05022 Z M2,9 C2,8.44772 2.44772,8 3,8 L5,8 C5.55228,8 6,8.44771 6,9 C6,9.55228 5.55228,10 5,10 L3,10 C2.44772,10 2,9.55228 2,9 Z M6.87871,12.5356 C7.26923,12.1451 7.26923,11.5119 6.87871,11.1214 C6.48818,10.7309 5.85502,10.7309 5.46449,11.1214 L4.05028,12.5356 C3.65976,12.9261 3.65976,13.5593 4.05028,13.9498 C4.4408,14.3403 5.07397,14.3403 5.46449,13.9498 L6.87871,12.5356 Z"/></g></svg>

<svg xmlns="http://www.w3.org/2000/svg" width="24" height="24"><g fill="none" fill-rule="evenodd"><path d="M24 0v24H0V0zM12.594 23.258l-.012.002-.071.035-.02.004-.014-.004-.071-.036c-.01-.003-.019 0-.024.006l-.004.01-.017.428.005.02.01.013.104.074.015.004.012-.004.104-.074.012-.016.004-.017-.017-.427c-.002-.01-.009-.017-.016-.018m.264-.113-.014.002-.184.093-.01.01-.003.011.018.43.005.012.008.008.201.092c.012.004.023 0 .029-.008l.004-.014-.034-.614c-.003-.012-.01-.02-.02-.022m-.715.002a.023.023 0 0 0-.027.006l-.006.014-.034.614c0 .012.007.02.017.024l.015-.002.201-.093.01-.008.003-.011.018-.43-.003-.012-.01-.01z"/><path fill="#09244B" d="M10 3a1 1 0 0 0-2 0v2a1 1 0 0 0 2 0zM5.464 4.05A1 1 0 1 0 4.05 5.464L5.464 6.88A1 1 0 1 0 6.88 5.464zm4.327 4.16c-.978-.326-1.907.603-1.582 1.58l3.533 10.598c.357 1.072 1.84 1.158 2.319.134l2.055-4.406 4.406-2.055c1.024-.478.938-1.962-.134-2.319zm4.159-4.16a1 1 0 0 1 0 1.414L12.536 6.88a1 1 0 1 1-1.415-1.415l1.415-1.414a1 1 0 0 1 1.414 0M2 9a1 1 0 0 1 1-1h2a1 1 0 1 1 0 2H3a1 1 0 0 1-1-1m4.879 3.536a1 1 0 1 0-1.415-1.415L4.05 12.536a1 1 0 1 0 1.414 1.414z"/></g></svg>
